icons/1_Primary/Tutanota.svg

<svg xmlns="http://www.w3.org/2000/svg" viewBox="0 0 1024 1024">
   <circle cx="512" cy="512" r="512" style="fill:#840010"/>
   <path d="M301.6 276.4c-25.2 0-45.6 20.4-45.6 45.6v420.9c0 1.6.1 3.2.2 4.8 16.9-6.3 34.9-13.2 53.9-20.8 132.2-52.8 240.2-97.6 240.3-148.3 0-1.6-.1-3.3-.3-4.9-6.8-50-126.3-65.5-126.2-88.4 0-1.2.4-2.5 1.1-3.8 14.4-25.1 71.2-23.9 92.2-25.7 21-1.8 70.1-1.4 72.5-16.4.1-.5.1-.9.1-1.4.1-13.9-33.8-19.4-33.8-19.4s41.1 6.1 41 22.1c0 .8-.1 1.6-.3 2.4-4.4 17.2-40.6 20.4-64.5 21.6-22.6 1.1-57.1 3.7-57.2 14.8 0 .6.1 1.3.3 2 5.4 16.2 131.7 23.9 212.5 65.9 46.5 24.1 69.6 64.6 80.2 106.4V322c0-25.2-20.4-45.6-45.6-45.6H301.6z" style="fill:#fff"/>
</svg>

<svg width="1024" height="1024" viewBox="0 0 1024 1024" fill="none" xmlns="http://www.w3.org/2000/svg">
<g clip-path="url(#clip0_2_3750)">
<path d="M512 1024C794.77 1024 1024 794.77 1024 512C1024 229.23 794.77 0 512 0C229.23 0 0 229.23 0 512C0 794.77 229.23 1024 512 1024Z" fill="#BA6561"/>
<path d="M301.6 276.4C276.4 276.4 256 296.8 256 322V742.9C256 744.5 256.1 746.1 256.2 747.7C273.1 741.4 291.1 734.5 310.1 726.9C442.3 674.1 550.3 629.3 550.4 578.6C550.4 577 550.3 575.3 550.1 573.7C543.3 523.7 423.8 508.2 423.9 485.3C423.9 484.1 424.3 482.8 425 481.5C439.4 456.4 496.2 457.6 517.2 455.8C538.2 454 587.3 454.4 589.7 439.4C589.8 438.9 589.8 438.5 589.8 438C589.9 424.1 556 418.6 556 418.6C556 418.6 597.1 424.7 597 440.7C597 441.5 596.9 442.3 596.7 443.1C592.3 460.3 556.1 463.5 532.2 464.7C509.6 465.8 475.1 468.4 475 479.5C475 480.1 475.1 480.8 475.3 481.5C480.7 497.7 607 505.4 687.8 547.4C734.3 571.5 757.4 612 768 653.8V322C768 296.8 747.6 276.4 722.4 276.4H301.6Z" fill="white"/>
</g>
<defs>
<clipPath id="clip0_2_3750">
<rect width="1024" height="1024" fill="white"/>
</clipPath>
</defs>
</svg>
